X:56
T:Highland Society of Scotland, The
T:An Comunn Rioghail Gaidhealach
R:Slow Strathspey
S:Simon Fraser Collection
N:No.5
O:Scottish
M:C
L:1/8
Q:1/4=140
K:A
c/>B/|AFEC EEEc/B/|A<F E>C B,2 B,c/B/|A>FEC FF EC/>B,/|
A,>F E/>D/C/>B,/ A,2 A,:|
d|c>Ae>c d/c/B/A/ e>d|c>Ad>c B2 B<d|c>Ae>c f/a/g/a/ g/f/e/d/|
d>ccG A2 Ac/B/|A<ae<c F/G/A E>C|A>CA>C B,2 B,C/D/|E>F A<c B<c A>E|
F>DE>C A,2 A,||

